X:1
T:Title
%%score 1 2 3 4
L:1/8
Q:1/4=132
M:6/8
K:C
V:1 treble nm="Church Organ, Church Organ"
V:2 treble nm="French Horn, French Horn"
V:3 bass nm="Trombone, Trombone"
V:4 bass nm="Tuba, Tuba"
V:1
 G c2 G c2 | GFE D C2 | D E2 ^F G2 | cBA B G2 | G A2 E .G2 | G A2 E G2- | GGA B c2 | B A2 B G2- | %8
w: By~Richard~R.~Terry * * *||||||||
 G^FG A B2 | A G2 ^F E2 | E G2- G G2 | E G2- G G2 | G A2 c c2 | B c2- c c2 |] %14
w: ||||||
V:2
 G E2 D C2 | C C2 B, C2 | B, C2 C B,2 | G ^F2 F G2 | C C2 C .D2 | C C2 C D2- | DDD D C2 | %7
 D E2 _E =E2 | DCC E E2 | E E2 _E =E2 | z3 B, .C2 | E D2 F E2 | G F2 G A2 | G G2- G G2 |] %14
V:3
 G, G,2 G, E,2 | E,D,E, F, E,2 | G, G,2 A,G,B, | EDC D B,2 | C C2 C .B,2 | C C2 C[K:bass] B,2- | %6
 B,B,A, G, G,2 | ^F, E,2 F, E,2 | EEE C B,2 | C[K:bass] B,2 A, G,2 | z3 G, .G,2 | %11
 G, G,2 B,[K:treble] C2 | C C2 CFE | D E2- E E2 |] %14
V:4
 G, C,2 B,, A,,2 | C, G,,2 G,, A,,2 | G,,C,B,, A,, E,2 | A,, D,2 D, G,2 | E, F,2 A, .G,2 | %5
 E, F,2 A, G,2- | G,F,F, F, E,2 | D, C,2 B,, E,2- | E,A,G, ^F, G,2 | A, B,2 A, G,2 | z3 F, .E,2 | %11
 C, B,,2 D, C,2 | E, F,2 E, D,2 | G,, C,2- C, C,2 |] %14

